images_sukapura_svg/cmd/sc_bezier_unfilled.svg

<svg viewBox="0 0 16 16" xmlns="http://www.w3.org/2000/svg" xmlns:xlink="http://www.w3.org/1999/xlink"><linearGradient id="a" gradientUnits="userSpaceOnUse" x1="-19.355436" x2="-18.6299" y1="16.707636" y2="1.656788"><stop offset="0" stop-color="#0040dd"/><stop offset="1" stop-color="#0a84ff"/></linearGradient><linearGradient id="b" gradientTransform="matrix(.26458333 0 0 .26458333 101.6 307.58333)" gradientUnits="userSpaceOnUse" x1="18.5" x2="18.5" y1="23" y2="14.5"><stop offset="0" stop-color="#d70015"/><stop offset="1" stop-color="#ff453a"/></linearGradient><linearGradient id="c" gradientUnits="userSpaceOnUse" x1="1.534062" x2="2.041211" xlink:href="#b" y1="15.938183" y2="13.061817"/><linearGradient id="d" gradientUnits="userSpaceOnUse" x1="14.77376" x2="14.753574" xlink:href="#b" y1="4.842304" y2="2.157695"/><linearGradient id="e" gradientUnits="userSpaceOnUse" x1="0" x2="3.00586" xlink:href="#b" y1="1.50293" y2="1.50293"/><linearGradient id="f" gradientTransform="translate(12.994141 12.994141)" gradientUnits="userSpaceOnUse" x1="0" x2="3.00586" xlink:href="#b" y1="1.50293" y2="1.50293"/><linearGradient id="g" gradientTransform="matrix(1 0 0 .9047619 -6.646447 1.859649)" gradientUnits="userSpaceOnUse" x1="6.5" x2="6.5" xlink:href="#b" y1="16" y2="0"/><linearGradient id="h" gradientTransform="translate(-9 3)" gradientUnits="userSpaceOnUse" x1="14.77376" x2="14.753574" xlink:href="#b" y1="4.842304" y2="2.157695"/>



     /&amp;amp;gt;
 <g fill="#4d82b8"><path d="m9 .04882812c-.7571642.0347447-1.491064.1901898-2.1523438.44921876-1.3225594.51805792-2.4047058 1.47078852-2.7617187 2.76367192-.3570129 1.2928833.0673089 2.8381892 1.4765625 4.390625 1.4725638 1.6221783 2.1287138 2.9982502 2.2734375 4.0605472.1447237 1.062296-.1813872 1.820057-.7753906 2.375-1.1880068 1.109885-3.6160578 1.276103-5.3730469.0625l-.5683594.822265c2.1331384 1.473421 5.0045899 1.359557 6.625-.154297.8102051-.756927 1.2649732-1.897409 1.0820313-3.240234s-.9621642-2.8777553-2.5234375-4.5976562c-1.2601938-1.3882312-1.5032622-2.5430364-1.2519532-3.453125.2513091-.9100887 1.0538869-1.663556 2.1621094-2.0976563 2.2164452-.8682006 5.4638944-.387486 7.0449214 2.46875l.875-.484375c-1.37889-2.49106197-3.861319-3.46946846-6.132812-3.36523438z" fill="url(#a)" fill-rule="evenodd"/><path d="m0 13h3v3h-3z" fill="url(#c)"/><path d="m13 1.9999998h3v3h-3z" fill="url(#d)"/><rect fill="url(#g)" height="19" ry=".089548" transform="matrix(.70710678 -.70710678 .70710678 .70710678 0 0)" width="1" x="-.646447" y="1.859649"/><path d="m4 5.0000001h3v3h-3z" fill="url(#h)"/><path d="m1.5039062.0000001a1.5033641 1.5033641 0 0 0 -1.5039062 1.5039062 1.5033641 1.5033641 0 0 0 1.5039062 1.5019532 1.5033641 1.5033641 0 0 0 1.5019532-1.5019532 1.5033641 1.5033641 0 0 0 -1.5019532-1.5039062zm0 1.0058594a.49663582.49663582 0 0 1 .4960938.4980468.49663582.49663582 0 0 1 -.4960938.4960938.49663582.49663582 0 0 1 -.4980468-.4960938.49663582.49663582 0 0 1 .4980468-.4980468z" fill="url(#e)"/><circle cx="1.503364" cy="1.503364" fill="#fff" r=".496636"/><circle cx="14.497504" cy="14.497504" fill="#fff" r=".496636"/><path d="m14.498047 12.994141a1.5033641 1.5033641 0 0 0 -1.503906 1.503906 1.5033641 1.5033641 0 0 0 1.503906 1.501953 1.5033641 1.5033641 0 0 0 1.501953-1.501953 1.5033641 1.5033641 0 0 0 -1.501953-1.503906zm0 1.005859a.49663582.49663582 0 0 1 .496094.498047.49663582.49663582 0 0 1 -.496094.496094.49663582.49663582 0 0 1 -.498047-.496094.49663582.49663582 0 0 1 .498047-.498047z" fill="url(#f)"/></g></svg>

<?xml version="1.0" encoding="UTF-8" standalone="no"?>
<svg
   xmlns:dc="http://purl.org/dc/elements/1.1/"
   xmlns:cc="http://creativecommons.org/ns#"
   xmlns:rdf="http://www.w3.org/1999/02/22-rdf-syntax-ns#"
   xmlns:svg="http://www.w3.org/2000/svg"
   xmlns="http://www.w3.org/2000/svg"
   xmlns:xlink="http://www.w3.org/1999/xlink"
   xmlns:sodipodi="http://sodipodi.sourceforge.net/DTD/sodipodi-0.dtd"
   xmlns:inkscape="http://www.inkscape.org/namespaces/inkscape"
   viewBox="0 0 16 16"
   version="1.1"
   id="svg10"
   sodipodi:docname="sc_bezier_unfilled.svg"
   inkscape:version="0.92.3 (2405546, 2018-03-11)"
   inkscape:export-filename="D:\Rizmut\libreoffice-style-sukapura-master\images_sukapura\cmd\sc_freeline_unfilled.png"
   inkscape:export-xdpi="96"
   inkscape:export-ydpi="96"><metadata
   id="metadata16">
  <rdf:RDF>
    <cc:Work
       rdf:about="">
      <dc:format>image/svg+xml</dc:format>
      <dc:type
         rdf:resource="http://purl.org/dc/dcmitype/StillImage" />
      <dc:title></dc:title>
    </cc:Work>
  </rdf:RDF>
</metadata>
<defs
   id="defs14">
  <linearGradient
     gradientTransform="translate(-29.694915,1.220339)"
     id="a-6"
     gradientUnits="userSpaceOnUse"
     x1="14"
     x2="13.79661"
     y1="22"
     y2="2.1355929">
    <stop
       offset="0"
       stop-color="#0040dd"
       id="stop2" />
    <stop
       offset="1"
       stop-color="#0a84ff"
       id="stop4" />
  </linearGradient>
  <linearGradient
     inkscape:collect="always"
     xlink:href="#a-6"
     id="linearGradient843"
     x1="10.339479"
     y1="15.487297"
     x2="11.065015"
     y2="0.43644944"
     gradientUnits="userSpaceOnUse" />
  <linearGradient
     gradientTransform="matrix(0.26458333,0,0,0.26458333,101.6,307.58333)"
     id="b"
     gradientUnits="userSpaceOnUse"
     x1="18.5"
     x2="18.5"
     y1="23"
     y2="14.5">
    <stop
       offset="0"
       stop-color="#d70015"
       id="stop956" />
    <stop
       offset="1"
       stop-color="#ff453a"
       id="stop958" />
  </linearGradient>
  <linearGradient
     inkscape:collect="always"
     xlink:href="#b"
     id="linearGradient865"
     x1="1.5340621"
     y1="15.938183"
     x2="2.0412111"
     y2="13.061817"
     gradientUnits="userSpaceOnUse" />
  <linearGradient
     inkscape:collect="always"
     xlink:href="#b"
     id="linearGradient867"
     x1="14.77376"
     y1="4.8423042"
     x2="14.753574"
     y2="2.1576953"
     gradientUnits="userSpaceOnUse" />
  <linearGradient
     inkscape:collect="always"
     xlink:href="#b"
     id="linearGradient2109"
     x1="-9.777353e-008"
     y1="1.5029297"
     x2="3.0058596"
     y2="1.5029297"
     gradientUnits="userSpaceOnUse" />
  <linearGradient
     inkscape:collect="always"
     xlink:href="#b"
     id="linearGradient2115"
     gradientUnits="userSpaceOnUse"
     x1="-9.777353e-008"
     y1="1.5029297"
     x2="3.0058596"
     y2="1.5029297"
     gradientTransform="translate(12.994141,12.994141)" />
  <linearGradient
     inkscape:collect="always"
     xlink:href="#b"
     id="linearGradient2125"
     x1="6.5"
     y1="16"
     x2="6.5"
     y2="0"
     gradientUnits="userSpaceOnUse"
     gradientTransform="matrix(1,0,0,0.9047619,-6.6464468,1.8596493)" />
  <linearGradient
     inkscape:collect="always"
     xlink:href="#b"
     id="linearGradient2092"
     gradientUnits="userSpaceOnUse"
     x1="14.77376"
     y1="4.8423042"
     x2="14.753574"
     y2="2.1576953"
     gradientTransform="translate(-9,3.0000003)" />
</defs>
<sodipodi:namedview
   pagecolor="#ffffff"
   bordercolor="#666666"
   borderopacity="1"
   objecttolerance="10"
   gridtolerance="10"
   guidetolerance="10"
   inkscape:pageopacity="0"
   inkscape:pageshadow="2"
   inkscape:window-width="1366"
   inkscape:window-height="716"
   id="namedview12"
   showgrid="false"
   inkscape:zoom="7.3750001"
   inkscape:cx="-2.0899653"
   inkscape:cy="14.176779"
   inkscape:window-x="-8"
   inkscape:window-y="-8"
   inkscape:window-maximized="1"
   inkscape:current-layer="svg10" />



     /&amp;gt;
 <g
   fill="#4d82b8"
   id="g8">
  <path
     d="m9 .04882812c-.7571642.0347447-1.491064.1901898-2.1523438.44921876-1.3225594.51805792-2.4047058 1.47078852-2.7617187 2.76367192-.3570129 1.2928833.0673089 2.8381892 1.4765625 4.390625 1.4725638 1.6221783 2.1287138 2.9982502 2.2734375 4.0605472.1447237 1.062296-.1813872 1.820057-.7753906 2.375-1.1880068 1.109885-3.6160578 1.276103-5.3730469.0625l-.5683594.822265c2.1331384 1.473421 5.0045899 1.359557 6.625-.154297.8102051-.756927 1.2649732-1.897409 1.0820313-3.240234s-.9621642-2.8777553-2.5234375-4.5976562c-1.2601938-1.3882312-1.5032622-2.5430364-1.2519532-3.453125.2513091-.9100887 1.0538869-1.663556 2.1621094-2.0976563 2.2164452-.8682006 5.4638944-.387486 7.0449214 2.46875l.875-.484375c-1.37889-2.49106197-3.861319-3.46946846-6.132812-3.36523438z"
     fill-rule="evenodd"
     id="path2"
     style="stroke:none;fill-opacity:1;fill:url(#linearGradient843)" />
  <path
     d="m0 13h3v3h-3z"
     id="path4"
     style="fill-opacity:1;fill:url(#linearGradient865)" />
  <path
     d="m13 1.9999998h3v3h-3z"
     id="path6"
     style="fill-opacity:1;fill:url(#linearGradient867)" />
  <rect
     style="fill:url(#linearGradient2125);fill-opacity:1;stroke:none;stroke-width:0.95118976;stroke-miterlimit:4;stroke-dasharray:none;stroke-opacity:1"
     id="rect2117"
     width="1"
     height="19"
     x="-0.64644665"
     y="1.8596493"
     ry="0.089548178"
     transform="rotate(-45)" />
  <path
     style="fill:url(#linearGradient2092);fill-opacity:1"
     id="path2090"
     d="m 4,5.0000001 h 3 v 3 H 4 Z"
     inkscape:connector-curvature="0" />
  <path
     inkscape:connector-curvature="0"
     style="fill:url(#linearGradient2109);fill-opacity:1;stroke:none;stroke-width:1.50336409;stroke-miterlimit:4;stroke-dasharray:none;stroke-opacity:1"
     d="M 1.5039062,9.7774336e-8 A 1.5033641,1.5033641 0 0 0 0,1.5039063 1.5033641,1.5033641 0 0 0 1.5039062,3.0058595 1.5033641,1.5033641 0 0 0 3.0058594,1.5039063 1.5033641,1.5033641 0 0 0 1.5039062,9.7774336e-8 Z M 1.5039062,1.0058595 A 0.49663582,0.49663582 0 0 1 2,1.5039063 0.49663582,0.49663582 0 0 1 1.5039062,2.0000001 0.49663582,0.49663582 0 0 1 1.0058594,1.5039063 0.49663582,0.49663582 0 0 1 1.5039062,1.0058595 Z"
     id="path2094" />
  <circle
     r="0.49663582"
     cy="1.5033642"
     cx="1.5033641"
     id="circle2098"
     style="fill:#ffffff;fill-opacity:1;stroke:none;stroke-width:0.49663582;stroke-miterlimit:4;stroke-dasharray:none;stroke-opacity:1" />
  <circle
     style="fill:#ffffff;fill-opacity:1;stroke:none;stroke-width:0.49663582;stroke-miterlimit:4;stroke-dasharray:none;stroke-opacity:1"
     id="circle2113"
     cx="14.497504"
     cy="14.497504"
     r="0.49663582" />
  <path
     id="path2111"
     d="M 14.498047,12.994141 A 1.5033641,1.5033641 0 0 0 12.994141,14.498047 1.5033641,1.5033641 0 0 0 14.498047,16 1.5033641,1.5033641 0 0 0 16,14.498047 1.5033641,1.5033641 0 0 0 14.498047,12.994141 Z m 0,1.005859 a 0.49663582,0.49663582 0 0 1 0.496094,0.498047 0.49663582,0.49663582 0 0 1 -0.496094,0.496094 A 0.49663582,0.49663582 0 0 1 14,14.498047 0.49663582,0.49663582 0 0 1 14.498047,14 Z"
     style="fill:url(#linearGradient2115);fill-opacity:1;stroke:none;stroke-width:1.50336409;stroke-miterlimit:4;stroke-dasharray:none;stroke-opacity:1"
     inkscape:connector-curvature="0" />
</g>
</svg>
